X: 96
M:4/4
L:1/8
K:D
dc||BE ~E2 BAFE|D2 FD ADFD|BE ~E2 BAFA|(3Bcd eg fddc|
d2 fd adfd|(3Bcd ef gfec|d2 fd adfd|(3Bcd eg fddc|
d2 fd affd|(3Bcd ef g2 fg|afge fdec|(3Bcd eg fd d2||

